dist/imgs/xd-logo.svg

<svg width="21" height="20" viewBox="0 0 21 20" fill="none" xmlns="http://www.w3.org/2000/svg">
<g clip-path="url(#clip0_10_493)">
<path d="M4.04142 0.5H16.9581C18.9164 0.5 20.4998 2.08333 20.4998 4.04167V16.4583C20.4998 18.4167 18.9164 20 16.9581 20H4.04142C2.08309 20 0.499756 18.4167 0.499756 16.4583V4.04167C0.499756 2.08333 2.08309 0.5 4.04142 0.5Z" fill="#470137"/>
<path d="M11.0165 5.625L8.51648 9.75L11.1831 14.125C11.1998 14.1583 11.2081 14.1917 11.1998 14.225C11.1915 14.2583 11.1581 14.2333 11.1081 14.2417H9.19981C9.06648 14.2417 8.97481 14.2333 8.91648 14.15C8.74148 13.8 8.55814 13.4583 8.38314 13.1083C8.20814 12.7667 8.01648 12.4167 7.81648 12.0583C7.61648 11.7 7.41648 11.3417 7.21648 10.975H7.19981C7.02481 11.3333 6.83314 11.6917 6.64148 12.05C6.44981 12.4083 6.25814 12.7667 6.07481 13.1167C5.88314 13.4667 5.69148 13.825 5.49981 14.1667C5.46648 14.25 5.39981 14.2583 5.30814 14.2583H3.47481C3.44148 14.2583 3.41648 14.275 3.41648 14.2333C3.40814 14.2 3.41648 14.1667 3.43314 14.1417L6.02481 9.89167L3.49981 5.61667C3.47481 5.58333 3.46648 5.55 3.48314 5.53333C3.49981 5.50833 3.53314 5.5 3.56648 5.5H5.45814C5.49981 5.5 5.54148 5.50833 5.57481 5.51667C5.60814 5.53333 5.63314 5.55833 5.65814 5.59167C5.81648 5.95 5.99981 6.30833 6.19148 6.66667C6.39148 7.025 6.58314 7.375 6.79148 7.725C6.99148 8.075 7.17481 8.425 7.34981 8.78333H7.36648C7.54148 8.41667 7.72481 8.05833 7.90814 7.70833C8.09148 7.35833 8.28314 7.00833 8.47481 6.65833C8.66648 6.30833 8.84981 5.95 9.03314 5.60833C9.04148 5.575 9.05814 5.54167 9.08314 5.525C9.11648 5.50833 9.14981 5.5 9.19148 5.50833H10.9498C10.9915 5.5 11.0331 5.525 11.0415 5.56667C11.0498 5.575 11.0331 5.60833 11.0165 5.625Z" fill="#FF61F6"/>
<path d="M14.8664 14.4167C14.2498 14.425 13.6331 14.3 13.0748 14.0417C12.5498 13.8 12.1164 13.4 11.8164 12.9083C11.5081 12.4 11.3581 11.7667 11.3581 11.0083C11.3498 10.3917 11.5081 9.78334 11.8164 9.25001C12.1331 8.70834 12.5914 8.25834 13.1414 7.95834C13.7248 7.63334 14.4248 7.47501 15.2498 7.47501C15.2914 7.47501 15.3498 7.47501 15.4248 7.48334C15.4998 7.49167 15.5831 7.49167 15.6831 7.50001V4.86667C15.6831 4.80834 15.7081 4.77501 15.7664 4.77501H17.4581C17.4998 4.76667 17.5331 4.80001 17.5414 4.83334C17.5414 4.84167 17.5414 4.85001 17.5414 4.85001V12.7833C17.5414 12.9333 17.5498 13.1 17.5581 13.2833C17.5748 13.4583 17.5831 13.625 17.5914 13.7667C17.5914 13.825 17.5664 13.875 17.5081 13.9C17.0748 14.0833 16.6164 14.2167 16.1498 14.3C15.7248 14.375 15.2998 14.4167 14.8664 14.4167ZM15.6831 12.75V9.08334C15.6081 9.06667 15.5331 9.05001 15.4581 9.04167C15.3664 9.03334 15.2748 9.02501 15.1831 9.02501C14.8581 9.02501 14.5331 9.09167 14.2414 9.24167C13.9581 9.38334 13.7164 9.59167 13.5331 9.85834C13.3498 10.125 13.2581 10.4833 13.2581 10.9167C13.2498 11.2083 13.2998 11.5 13.3998 11.775C13.4831 12 13.6081 12.2 13.7748 12.3667C13.9331 12.5167 14.1248 12.6333 14.3414 12.7C14.5664 12.775 14.7998 12.8083 15.0331 12.8083C15.1581 12.8083 15.2748 12.8 15.3831 12.7917C15.4914 12.8 15.5831 12.7833 15.6831 12.75Z" fill="#FF61F6"/>
</g>
<defs>
<clipPath id="clip0_10_493">
<rect width="20" height="19.5" fill="white" transform="translate(0.499756 0.5)"/>
</clipPath>
</defs>
</svg>

<svg width="21" height="20" fill="none" xmlns="http://www.w3.org/2000/svg"><g clip-path="url(#clip0_10_493)"><path d="M4.041.5h12.917A3.539 3.539 0 0120.5 4.042v12.416A3.539 3.539 0 0116.958 20H4.041A3.539 3.539 0 01.5 16.458V4.042A3.539 3.539 0 014.04.5z" fill="#470137"/><path d="M11.017 5.625l-2.5 4.125 2.666 4.375a.143.143 0 01.017.1c-.008.033-.042.008-.092.017H9.2c-.134 0-.225-.009-.284-.092-.175-.35-.358-.692-.533-1.042a33.836 33.836 0 00-.567-1.05c-.2-.358-.4-.716-.6-1.083H7.2c-.175.358-.367.717-.559 1.075-.191.358-.383.717-.566 1.067-.192.35-.384.708-.575 1.05-.034.083-.1.091-.192.091H3.475c-.034 0-.059.017-.059-.025a.116.116 0 01.017-.091l2.592-4.25L3.5 5.617c-.025-.034-.034-.067-.017-.084.017-.025.05-.033.083-.033h1.892c.042 0 .083.008.117.017a.236.236 0 01.083.075c.158.358.342.716.533 1.075.2.358.392.708.6 1.058.2.35.384.7.559 1.058h.016c.175-.366.359-.725.542-1.075.183-.35.375-.7.567-1.05.191-.35.375-.708.558-1.05a.141.141 0 01.05-.083.159.159 0 01.108-.017h1.759a.077.077 0 01.091.059c.009.008-.008.041-.024.058zm3.849 8.792a4.144 4.144 0 01-1.791-.375 2.906 2.906 0 01-1.259-1.134c-.308-.508-.458-1.141-.458-1.9a3.423 3.423 0 011.783-3.05c.584-.325 1.284-.483 2.109-.483.041 0 .1 0 .175.008.075.009.158.009.258.017V4.867c0-.059.025-.092.083-.092h1.692c.042-.008.075.025.083.058v7.95c0 .15.009.317.017.5.017.175.025.342.033.484 0 .058-.025.108-.083.133a6.365 6.365 0 01-1.358.4 7.35 7.35 0 01-1.284.117zm.817-1.667V9.083a2.132 2.132 0 00-.225-.041 2.819 2.819 0 00-.275-.017c-.325 0-.65.067-.942.217-.283.141-.525.35-.708.616-.183.267-.275.625-.275 1.059a2.33 2.33 0 00.142.858c.083.225.208.425.375.592.158.15.35.266.566.333.225.075.459.108.692.108.125 0 .242-.008.35-.016a.73.73 0 00.3-.042z" fill="#FF61F6"/></g><defs><clipPath id="clip0_10_493"><path fill="#fff" transform="translate(.5 .5)" d="M0 0h20v19.5H0z"/></clipPath></defs></svg>
